Newaita-dark/actions/16/xml-attribute-delete.svg

<svg height="16" viewBox="0 0 16 16" width="16" xmlns="http://www.w3.org/2000/svg"><g fill="#e0e0e0"><path d="m3.308594 7.070312v6.945313c0 .367187.292968.664063.660156.664063h2.976562v-1.324219h-1.984374c-.183594 0-.332032-.148438-.332032-.332031v-5.953126zm7.9375 0v1.984376h1.324218v-1.984376zm0 0"/><path d="m7.9375 1.453125c-.539062 0-.933594.242187-1.402344.554687s-.964844.730469-1.429687 1.21875c-.929688.976563-1.792969 2.191407-1.792969 3.511719v.664063c-.003906.238281.121094.457031.324219.578125.207031.121093.460937.121093.664062 0 .207031-.121094.332031-.339844.328125-.578125v-.664063c0-.660156.625-1.757812 1.429688-2.601562.402344-.421875.835937-.789063 1.207031-1.035157.367187-.246093.71875-.332031.671875-.332031-.042969 0 .304688.085938.675781.332031.367188.246094.804688.613282 1.207031 1.035157.804688.84375 1.429688 1.941406 1.429688 2.601562v.664063c-.003906.238281.121094.457031.324219.578125.207031.121093.460937.121093.664062 0 .207031-.121094.332031-.339844.328125-.578125v-.664063c0-1.320312-.863281-2.535156-1.796875-3.511719-.464843-.488281-.957031-.90625-1.425781-1.21875s-.863281-.554687-1.40625-.554687zm0 0"/><path d="m7.9375 4.753906c.546875 0 .992188.445313.992188.992188 0 .550781-.445313.992187-.992188.992187s-.992188-.441406-.992188-.992187c0-.546875.445313-.992188.992188-.992188zm0 0"/></g><path d="m12.472656 14.113281-.46875.46875c-.128906.128907-.339844.128907-.46875 0l-3.273437-3.273437c-.128907-.128906-.128907-.339844 0-.46875l.46875-.46875c.128906-.128906.339843-.128906.46875 0l3.273437 3.273437c.128906.128907.128906.339844 0 .46875zm0 0" fill="#f44336"/><path d="m8.730469 14.582031-.46875-.46875c-.128907-.128906-.128907-.339843 0-.46875l3.273437-3.273437c.128906-.128906.339844-.128906.46875 0l.46875.46875c.128906.128906.128906.339844 0 .46875l-3.273437 3.273437c-.128907.128907-.339844.128907-.46875 0zm0 0" fill="#f44336"/></svg>

<svg xmlns="http://www.w3.org/2000/svg" xmlns:xlink="http://www.w3.org/1999/xlink" width="16px" height="16px" viewBox="0 0 16 16" version="1.1">
<g id="surface1">
     <defs>
  <style id="current-color-scheme" type="text/css">
   .ColorScheme-Text { color:#eeeeee; } .ColorScheme-Highlight { color:#424242; }
  </style>
 </defs>
<path style="fill:currentColor" class="ColorScheme-Text" d="M 3.308594 7.070312 L 3.308594 14.015625 C 3.308594 14.382812 3.601562 14.679688 3.96875 14.679688 L 6.945312 14.679688 L 6.945312 13.355469 L 4.960938 13.355469 C 4.777344 13.355469 4.628906 13.207031 4.628906 13.023438 L 4.628906 7.070312 Z M 11.246094 7.070312 L 11.246094 9.054688 L 12.570312 9.054688 L 12.570312 7.070312 Z M 11.246094 7.070312 "/>
     <defs>
  <style id="current-color-scheme" type="text/css">
   .ColorScheme-Text { color:#eeeeee; } .ColorScheme-Highlight { color:#424242; }
  </style>
 </defs>
<path style="fill:currentColor" class="ColorScheme-Text" d="M 7.9375 1.453125 C 7.398438 1.453125 7.003906 1.695312 6.535156 2.007812 C 6.066406 2.320312 5.570312 2.738281 5.105469 3.226562 C 4.175781 4.203125 3.3125 5.417969 3.3125 6.738281 L 3.3125 7.402344 C 3.308594 7.640625 3.433594 7.859375 3.636719 7.980469 C 3.84375 8.101562 4.097656 8.101562 4.300781 7.980469 C 4.507812 7.859375 4.632812 7.640625 4.628906 7.402344 L 4.628906 6.738281 C 4.628906 6.078125 5.253906 4.980469 6.058594 4.136719 C 6.460938 3.714844 6.894531 3.347656 7.265625 3.101562 C 7.632812 2.855469 7.984375 2.769531 7.9375 2.769531 C 7.894531 2.769531 8.242188 2.855469 8.613281 3.101562 C 8.980469 3.347656 9.417969 3.714844 9.820312 4.136719 C 10.625 4.980469 11.25 6.078125 11.25 6.738281 L 11.25 7.402344 C 11.246094 7.640625 11.371094 7.859375 11.574219 7.980469 C 11.78125 8.101562 12.035156 8.101562 12.238281 7.980469 C 12.445312 7.859375 12.570312 7.640625 12.566406 7.402344 L 12.566406 6.738281 C 12.566406 5.417969 11.703125 4.203125 10.769531 3.226562 C 10.304688 2.738281 9.8125 2.320312 9.34375 2.007812 C 8.875 1.695312 8.480469 1.453125 7.9375 1.453125 Z M 7.9375 1.453125 "/>
     <defs>
  <style id="current-color-scheme" type="text/css">
   .ColorScheme-Text { color:#eeeeee; } .ColorScheme-Highlight { color:#424242; }
  </style>
 </defs>
<path style="fill:currentColor" class="ColorScheme-Text" d="M 7.9375 4.753906 C 8.484375 4.753906 8.929688 5.199219 8.929688 5.746094 C 8.929688 6.296875 8.484375 6.738281 7.9375 6.738281 C 7.390625 6.738281 6.945312 6.296875 6.945312 5.746094 C 6.945312 5.199219 7.390625 4.753906 7.9375 4.753906 Z M 7.9375 4.753906 "/>
<path style=" stroke:none;fill-rule:nonzero;fill:rgb(95.686275%,26.274511%,21.176471%);fill-opacity:1;" d="M 12.472656 14.113281 L 12.003906 14.582031 C 11.875 14.710938 11.664062 14.710938 11.535156 14.582031 L 8.261719 11.308594 C 8.132812 11.179688 8.132812 10.96875 8.261719 10.839844 L 8.730469 10.371094 C 8.859375 10.242188 9.070312 10.242188 9.199219 10.371094 L 12.472656 13.644531 C 12.601562 13.773438 12.601562 13.984375 12.472656 14.113281 Z M 12.472656 14.113281 "/>
<path style=" stroke:none;fill-rule:nonzero;fill:rgb(95.686275%,26.274511%,21.176471%);fill-opacity:1;" d="M 8.730469 14.582031 L 8.261719 14.113281 C 8.132812 13.984375 8.132812 13.773438 8.261719 13.644531 L 11.535156 10.371094 C 11.664062 10.242188 11.875 10.242188 12.003906 10.371094 L 12.472656 10.839844 C 12.601562 10.96875 12.601562 11.179688 12.472656 11.308594 L 9.199219 14.582031 C 9.070312 14.710938 8.859375 14.710938 8.730469 14.582031 Z M 8.730469 14.582031 "/>
</g>
</svg>
